X: 33018
T: Price Of My Pig, The
R: jig
M: 6/8
K: Aminor
|:EAA AGA|~B3 GAB|~c3 ~B3|AGE E2D|
EAA AGA|B3 GAB|~c3 ~B3|1 AGE E2D:|2 AGE E2d||
|:efe ~d3|~c3 ~B3|~c3 ~B3|AGE E2D|
EAA AGA|B3 GAB|~c3 ~B3|1 AGE E2d:|2 AGE E2D||

